!!!!SEGMENT: Distler_Jahrkreis_34_Wohlaus-mit-mir-auf-diesen-Plan_3v.krn
!!!COM: Distler, Hugo
!!!CDT: 1908-1942
!!!OPR@@DE: Der Jahrkreis
!!!OPR@EN: The Year Cycle
!!!OTL@@DE: Wohlaus mit mir auf diesen Plan
!!!OTL@EN: ...
!!!OPS: 5
!!!ONM: 34
!!!RNB: Middle section with 1-, 2-voices is omitted.
**kern	**text	**kern	**text	**kern	**text
*part3	*part3	*part2	*part2	*part1	*part1
*staff3	*staff3	*staff2	*staff2	*staff1	*staff1
*Ialto	*	*Isoprn	*	*Isoprn	*
*clefG2	*	*clefG2	*	*clefG2	*
*k[b-]	*	*k[b-]	*	*k[b-]	*
*MM120	*	*MM120	*	*MM120	*
*M6/4	*	*M6/4	*	*M6/4	*
4r	.	4f	Wohl-	4f	Wohl-
=1	=1	=1	=1	=1	=1
2.	.	2e	auf	2a	auf
.	.	4g	mit	4a	mit
2r	.	2d	mir	2a	mir
4A	Wohl-	4c	auf	4cc	auf
=2	=2	=2	=2	=2	=2
4c	auf	(4.e	die-	2g	die-
4d	mit	.	.	.	.
.	.	8f)	.	.	.
4c	mir	4e	sen	4a	sen
4B-	auf	2d,	Plan,	2f,	Plan,
4A	die-	.	.	.	.
4G	sen	4d	ein'	4f	ein'
!!LO:LB:g=original
=3	=3	=3	=3	=3	=3
4A,	Plan,	2c#	Tanz	2e	Tanz
4a	ein'	.	.	.	.
4d	Tanz	4d	will	4f	will
4c	will	2e	ich	2g	ich
4B-	ich	.	.	.	.
4A	euch	4d	euch	4a	euch
=4	=4	=4	=4	=4	=4
2G	stel-	2cn	stel-	(4.d	stel-
.	.	.	.	8e)	.
4G	len	4B	len	4d	len
2c	an!	2c	an!	2c,	an!
4r	.	4r	.	4c	Da-
=5	=5	=5	=5	=5	=5
2r	.	2r	.	2f	bei
4e	Da-	4c	Da-	4g	muesst
2d	bei	(4.f	bei	2a	ihr
.	.	8e)	.	.	.
4d	muesst	4d	muesst	4g	mir
!!LO:LB:g=original
=6	=6	=6	=6	=6	=6
2c	ihr	4e	ihr	2a	all'
.	.	2.a	mir	.	.
4B-	mir	.	.	4b-	er-
2A	all'	.	.	2cc	schei-
.	.	4g	all'	.	.
4A	er-	4a	er-	4cc	nen
=7	=7	=7	=7	=7	=7
4d	schei-	4f	schei-	2r	.
4d,	nen,	4f,	nen,	.	.
4e	ihr	4g	ihr	4cc	ihr
2f	tut	(4a	tut	2dd	tut
.	.	4.f)	.	.	.
4f	gleich	.	.	4cc	gleich
.	.	8e	gleich	.	.
=8	=8	=8	=8	=8	=8
2B-	la-	(4d	la-	2b-	la-
.	.	4e)	.	.	.
4d	chen	4f	chen	4a	chen
4B-	o-	2f	o-	4a	o-
2c	der	.	.	2g	der
.	.	4e	der	.	.
=9	=9	=9	=9	=9	=9
4f	wei-	4f	wei-	4f	wei-
4f	nen.	4f	nen.	4f	nen.
4r	.	4r	.	4r	.
2r	.	2r	.	2r	.
!!LO:LB:g=original
=||	=||	=||	=||	=||	=||
*M6/4	*	*M6/4	*	*M6/4	*
4d	Das	4f	Das	4r	.
=10	=10	=10	=10	=10	=10
2e	Fleisch	2a	Fleisch	2r	.
4f	mag	4a	mag	4dd	Das
(4.e	sein	4a	sein	4.ee	Fleisch
.	.	4cc	zum	.	.
8d)	.	.	.	8ee	mag
4c	zum	([4g	Tanz	4ee	sein
=11	=11	=11	=11	=11	=11
(4.B-	Tanz	8gL]	.	4gg	zum
.	.	8fJ)	.	.	.
.	.	4g	be-	(4.dd	Tanz
8c)	.	.	.	.	.
(8dL	be-	2f,	reit:	.	.
8eJ)	.	.	.	8cc)	.
2f,	reit:	.	.	4dd	be-
.	.	2g	der	2cc,	reit:
4e	der	.	.	.	.
!!LO:LB:g=original
=12	=12	=12	=12	=12	=12
2a	Tod	4f	Tod	2cc	der
.	.	4e	die	.	.
4g	die	2g	ar-	4b	Tod
2f	ar-	.	.	4cc	die
.	.	4a	me	4dd	ar-
4e	me	([4g	Seel'	4ee	me
=13	=13	=13	=13	=13	=13
*M5/4	*	*M5/4	*	*M5/4	*
(4.d	Seel'	8gL]	.	2a	Seel'
.	.	8f	.	.	.
.	.	8e	.	.	.
8c)	.	8fJ)	.	.	.
4d	be-	4d	be-	4b	be-
2e	freit.	4c,	freit.	2g	freit.
.	.	4c	Sein	.	.
=14	=14	=14	=14	=14	=14
*M4/4	*	*M4/4	*	*M4/4	*
4r	.	4f	Bit-	4r	.
4e	Sein	4g	ter-	4g	Sein
8f	Bit-	4a	nis	8cc	Bit-
8f	ter-	.	.	8cc	ter-
[4e	nis	4g	ward	[4cc	nis
!!LO:LB:g=original
=15	=15	=15	=15	=15	=15
*M6/4	*	*M6/4	*	*M6/4	*
8e]	.	2a	ganz	8cc]	.
8e	ward	.	.	8cc	ward
2g	ganz	.	.	2dd	ganz
.	.	4b-	zu	.	.
4f	zu	4cc	Schan-	4a	zu
4a	Schan-	4cc,	den,	4ee	Schan-
4e,	den,	4cc	da	4ee,	den,
=16	=16	=16	=16	=16	=16
4d	da	(4.dd	Christ	4ff	da
4d	Christ	.	.	4ff	Christ
.	.	8cc)	.	.	.
4g	vom	4b-	vom	4gg	vom
4c	Tod	4cc	Tod	(4ee	Tod
4f	ist	(8b-L	ist	4.ff)	.
.	.	8aJ)	.	.	.
[4f	auf-	[4g	auf-	.	.
.	.	.	.	8ee	ist
=17	=17	=17	=17	=17	=17
4f]	.	4g]	.	4dd	auf-
4e	er-	4g	er-	4cc	er-
2f	stan-	2a	stan-	2cc	stan-
2f	den.	2a	den.	2cc	den.
==	==	==	==	==	==
*-	*-	*-	*-	*-	*-
!!!YOR: Bärenreiter-Ausgabe 676
!!!YOY: 1933
!!!EFL: 34/52
!!!URL-pdf: https://imslp.eu/files/imglnks/euimg/7/7d/IMSLP834545-PMLP518834-5-jahrkreis-EA--original-paper-600dpi.pdf#page=65 First edition, Kassel: Bärenreiter, 1933. Plate BA 676.
!!!URL-imslp: https://imslp.org/wiki/Der_Jahrkreis,_Op.5_(Distler,_Hugo)#IMSLP834545
!!!system-decoration: [(s1,s2,s3)]
!!!ENC: Lucas Hofmann
!!!END: 2023/11/19
!!!title: @{OPR@@DE}, Op. @{OPS}, Nr. @{ONM}. @{OTL@@DE}
